X:1
T:Title
%%score ( 1 2 ) 3
L:1/8
Q:1/4=108
M:2/4
K:Bb
V:1 treble nm="Grand Piano, Soprano"
V:2 treble 
V:3 bass nm="Choir Pad, Angels, Weddle &amp; Rublee"
V:1
 B3 A | B2 F2 | [FB]2 [Fc]2 | [Fd]2 .[DB]2 | [Fc]2 [Fd]2 | [Fe]2 z2 | [EA]3 [EA] | [DB]2 z2 | %8
w: By~M.~A.~Rublee *||||||||
 [DF]2 [B,D][EG] | [DF]2 [B,D][EG] | FB [DB][Fd] | [Fd]2 [Fc]2 | [^Fd]3 [Fd] | [Gd]2 [Gc]2 | %14
w: ||||||
 [FB]2 [FA]2 | [FB]4 | [Ec]3 [Ec] | [Fd]2 [DB]2 | [Fc]3 [Fc] | [Fd]2 [Ff]2 | fd [GB][EG] | %21
w: |||||||
 [DF]2 [DB]2 | [Gc]2 A-[EA] | [DB]4- | [DB]4 |] %25
w: ||||
V:2
 x4 | x4 | x4 | x4 | x4 | x4 | x4 | x4 | x4 | x4 | D2 z2 | x4 | x4 | x4 | x4 | x4 | x4 | x4 | x4 | %19
 x4 | F2 z2 | x4 | z2 .F2 | x4 | x4 |] %25
V:3
 B,3 A, | B,2 F,2 | [D,B,]2 [F,A,]2 | B,2 .[B,,B,]2 | [F,A,]2 [F,B,]2 | [F,C]2 z2 | [F,C]3 [F,C] | %7
 [B,,B,]2 z2 | [B,,B,]2 [B,,B,]2 | [B,,B,]2 [B,,B,]2 | [B,,B,]2 [B,,B,]2 | [F,B,]2 [F,A,]2 | %12
 [D,A,]3 [D,A,] | [G,B,]2 [E,E]2 | [F,D]2 [F,C]2 | [B,D]4 | z4 | z4 | [F,A,]3 [F,A,] | %19
 B,2 [F,A,]2 | [B,,B,]2 [E,B,]2 | [B,,B,]2 [G,B,]2 | [E,E]2 [F,C]2 | [B,,B,]4- | [B,,B,]4 |] %25

